src/assets/details/bounce.svg

<svg height="100" viewBox="0 0 100 100" width="100" xmlns="http://www.w3.org/2000/svg"><path d="m42.58 61.82-39.7-39.7c-.56-.56-.88-1.32-.88-2.12s.32-1.56.88-2.12 1.32-.88 2.12-.88 1.56.32 2.12.88l39.7 39.7c.56.56.88 1.32.88 2.12 0 .79-.32 1.56-.88 2.12s-1.33.88-2.12.88c-.8 0-1.56-.32-2.12-.88zm55.39-41.54v.08c0 .02-.01.05-.01.07 0 .03 0 .05-.01.08 0 .02 0 .05-.01.07v.01.01.01l-10.6 53.01c-.16.78-.62 1.47-1.28 1.91-.66.45-1.47.61-2.26.45-.78-.16-1.46-.62-1.9-1.28-.45-.66-.61-1.47-.45-2.26l8.67-43.31-32.7 32.69c-.56.56-1.32.88-2.12.88-.79 0-1.56-.32-2.12-.88s-.88-1.33-.88-2.12c0-.8.32-1.56.88-2.12l32.69-32.7-43.31 8.67c-.79.16-1.6 0-2.26-.45-.66-.44-1.12-1.12-1.28-1.9-.16-.79 0-1.6.45-2.26.44-.66 1.13-1.12 1.91-1.28l53.03-10.6h.01c.03-.01.06-.01.09-.02.03 0 .06 0 .09-.01h.1c.03-.01.06-.01.09-.01.07 0 .13-.02.2-.02h.02c.08 0 .17.02.26.03h.08c.02 0 .05 0 .07.01.03 0 .06 0 .08.01.03 0 .06 0 .08.01h.01c.09.02.18.05.27.08.02.01.04.01.07.02.02.01.05.01.07.02.03.01.05.02.07.02.03.01.05.02.07.03h.02c.09.04.17.1.26.14.08.04.16.08.24.13l.01.01c.02.02.04.03.06.05.02.01.04.03.06.05.02.01.04.03.06.05.02.01.04.03.06.05.07.05.14.1.21.17.06.06.11.14.17.2.02.02.03.04.05.06s.04.04.05.06c.02.02.04.04.05.07.02.02.03.04.05.06l.01.01c.05.08.08.16.12.23v.01c.02.02.03.04.04.06s.03.04.04.07c.01.02.02.04.03.06s.03.05.04.07v.02c.04.09.06.18.09.27.03.1.06.18.08.28v.01c.01.02.01.05.01.07.01.03.01.05.01.08 0 .02.01.05.01.07v.08c.01.09.03.18.03.27v.02c0 .09-.02.18-.03.27zm-47.97 56.72c.39 0 .78.08 1.15.23.36.15.69.37.97.65s.5.61.65.97c.15.37.23.76.23 1.15v7.5c0 .8-.32 1.56-.88 2.12s-1.32.88-2.12.88-1.56-.32-2.12-.88-.88-1.32-.88-2.12v-7.5c0-.39.08-.78.23-1.15.15-.36.37-.69.65-.97s.61-.5.97-.65c.37-.15.76-.23 1.15-.23zm-12.23-10.85c-.15.36-.37.69-.65.97s-.61.5-.97.65c-.37.15-.76.23-1.15.23h-7.5c-.8 0-1.56-.32-2.12-.88s-.88-1.32-.88-2.12.32-1.56.88-2.12 1.32-.88 2.12-.88h7.5c.39 0 .78.08 1.15.23.36.15.69.37.97.65s.5.61.65.97c.15.37.23.76.23 1.15s-.08.78-.23 1.15zm36.85-3.27c.56.56.88 1.32.88 2.12s-.32 1.56-.88 2.12-1.32.88-2.12.88h-7.5c-.8 0-1.56-.32-2.12-.88s-.88-1.32-.88-2.12.32-1.56.88-2.12 1.32-.88 2.12-.88h7.5c.8 0 1.56.32 2.12.88zm-27.22 6.35c.15.36.22.75.22 1.15 0 .39-.07.78-.22 1.14-.15.37-.38.7-.65.98l-10.54 10.53c-.56.56-1.32.88-2.12.88-.79 0-1.56-.32-2.12-.88s-.88-1.33-.88-2.12c0-.8.32-1.56.88-2.12l10.53-10.54c.28-.27.61-.5.98-.65.36-.15.75-.22 1.14-.22.4 0 .79.07 1.15.22.37.15.7.38.98.65.27.28.5.61.65.98zm20.63 9.56c.56.56.88 1.32.88 2.12s-.32 1.56-.88 2.12-1.32.88-2.12.88-1.56-.32-2.12-.88l-10.61-10.61c-.56-.56-.88-1.32-.88-2.12 0-.79.32-1.56.88-2.12s1.33-.88 2.12-.88c.8 0 1.56.32 2.12.88z" fill-rule="evenodd"/></svg>

<svg xmlns="http://www.w3.org/2000/svg" viewBox="0 0 100 100" width="100" height="100">
	<style>
		tspan { white-space:pre }
		.shp0 { fill: #000000 } 
	</style>
	<path id="Layer" fill-rule="evenodd" class="shp0" d="M42.58 61.82L2.88 22.12C2.32 21.56 2 20.8 2 20C2 19.2 2.32 18.44 2.88 17.88C3.44 17.32 4.2 17 5 17C5.8 17 6.56 17.32 7.12 17.88L46.82 57.58C47.38 58.14 47.7 58.9 47.7 59.7C47.7 60.49 47.38 61.26 46.82 61.82C46.26 62.38 45.49 62.7 44.7 62.7C43.9 62.7 43.14 62.38 42.58 61.82ZM97.97 20.28C97.97 20.31 97.97 20.33 97.97 20.36C97.97 20.38 97.96 20.41 97.96 20.43C97.96 20.46 97.96 20.48 97.95 20.51C97.95 20.53 97.95 20.56 97.94 20.58L97.94 20.59L97.94 20.6L97.94 20.61L87.34 73.62C87.18 74.4 86.72 75.09 86.06 75.53C85.4 75.98 84.59 76.14 83.8 75.98C83.02 75.82 82.34 75.36 81.9 74.7C81.45 74.04 81.29 73.23 81.45 72.44L90.12 29.13L57.42 61.82C56.86 62.38 56.1 62.7 55.3 62.7C54.51 62.7 53.74 62.38 53.18 61.82C52.62 61.26 52.3 60.49 52.3 59.7C52.3 58.9 52.62 58.14 53.18 57.58L85.87 24.88L42.56 33.55C41.77 33.71 40.96 33.55 40.3 33.1C39.64 32.66 39.18 31.98 39.02 31.2C38.86 30.41 39.02 29.6 39.47 28.94C39.91 28.28 40.6 27.82 41.38 27.66L94.41 17.06L94.42 17.06C94.45 17.05 94.48 17.05 94.51 17.04C94.54 17.04 94.57 17.04 94.6 17.03C94.63 17.03 94.67 17.03 94.7 17.03C94.73 17.02 94.76 17.02 94.79 17.02C94.86 17.02 94.92 17 94.99 17L95.01 17C95.09 17 95.18 17.02 95.27 17.03C95.29 17.03 95.32 17.03 95.35 17.03C95.37 17.03 95.4 17.03 95.42 17.04C95.45 17.04 95.48 17.04 95.5 17.05C95.53 17.05 95.56 17.05 95.58 17.06L95.59 17.06L95.59 17.06C95.68 17.08 95.77 17.11 95.86 17.14C95.88 17.15 95.9 17.15 95.93 17.16C95.95 17.17 95.98 17.17 96 17.18C96.03 17.19 96.05 17.2 96.07 17.2C96.1 17.21 96.12 17.22 96.14 17.23L96.16 17.23C96.25 17.27 96.33 17.33 96.42 17.37C96.5 17.41 96.58 17.45 96.66 17.5L96.67 17.51C96.69 17.53 96.71 17.54 96.73 17.56C96.75 17.57 96.77 17.59 96.79 17.61C96.81 17.62 96.83 17.64 96.85 17.66C96.87 17.67 96.89 17.69 96.91 17.71C96.98 17.76 97.05 17.81 97.12 17.88L97.12 17.88L97.12 17.88C97.18 17.94 97.23 18.02 97.29 18.08C97.31 18.1 97.32 18.12 97.34 18.14C97.36 18.16 97.38 18.18 97.39 18.2C97.41 18.22 97.43 18.24 97.44 18.27C97.46 18.29 97.47 18.31 97.49 18.33L97.5 18.34C97.55 18.42 97.58 18.5 97.62 18.57L97.62 18.58C97.64 18.6 97.65 18.62 97.66 18.64C97.67 18.66 97.69 18.68 97.7 18.71C97.71 18.73 97.72 18.75 97.73 18.77C97.74 18.79 97.76 18.82 97.77 18.84L97.77 18.86C97.81 18.95 97.83 19.04 97.86 19.13C97.89 19.23 97.92 19.31 97.94 19.41L97.94 19.41L97.94 19.42C97.95 19.44 97.95 19.47 97.95 19.49C97.96 19.52 97.96 19.54 97.96 19.57C97.96 19.59 97.97 19.62 97.97 19.64C97.97 19.67 97.97 19.69 97.97 19.72C97.98 19.81 98 19.9 98 19.99L98 20.01C98 20.1 97.98 20.19 97.97 20.28ZM50 77C50.39 77 50.78 77.08 51.15 77.23C51.51 77.38 51.84 77.6 52.12 77.88C52.4 78.16 52.62 78.49 52.77 78.85C52.92 79.22 53 79.61 53 80L53 87.5C53 88.3 52.68 89.06 52.12 89.62C51.56 90.18 50.8 90.5 50 90.5C49.2 90.5 48.44 90.18 47.88 89.62C47.32 89.06 47 88.3 47 87.5L47 80C47 79.61 47.08 79.22 47.23 78.85C47.38 78.49 47.6 78.16 47.88 77.88C48.16 77.6 48.49 77.38 48.85 77.23C49.22 77.08 49.61 77 50 77ZM37.77 66.15C37.62 66.51 37.4 66.84 37.12 67.12C36.84 67.4 36.51 67.62 36.15 67.77C35.78 67.92 35.39 68 35 68L27.5 68C26.7 68 25.94 67.68 25.38 67.12C24.82 66.56 24.5 65.8 24.5 65C24.5 64.2 24.82 63.44 25.38 62.88C25.94 62.32 26.7 62 27.5 62L35 62C35.39 62 35.78 62.08 36.15 62.23C36.51 62.38 36.84 62.6 37.12 62.88C37.4 63.16 37.62 63.49 37.77 63.85C37.92 64.22 38 64.61 38 65C38 65.39 37.92 65.78 37.77 66.15ZM74.62 62.88C75.18 63.44 75.5 64.2 75.5 65C75.5 65.8 75.18 66.56 74.62 67.12C74.06 67.68 73.3 68 72.5 68L65 68C64.2 68 63.44 67.68 62.88 67.12C62.32 66.56 62 65.8 62 65C62 64.2 62.32 63.44 62.88 62.88C63.44 62.32 64.2 62 65 62L72.5 62C73.3 62 74.06 62.32 74.62 62.88ZM47.4 69.23C47.55 69.59 47.62 69.98 47.62 70.38C47.62 70.77 47.55 71.16 47.4 71.52C47.25 71.89 47.02 72.22 46.75 72.5L36.21 83.03C35.65 83.59 34.89 83.91 34.09 83.91C33.3 83.91 32.53 83.59 31.97 83.03C31.41 82.47 31.09 81.7 31.09 80.91C31.09 80.11 31.41 79.35 31.97 78.79L42.5 68.25C42.78 67.98 43.11 67.75 43.48 67.6C43.84 67.45 44.23 67.38 44.62 67.38C45.02 67.38 45.41 67.45 45.77 67.6C46.14 67.75 46.47 67.98 46.75 68.25C47.02 68.53 47.25 68.86 47.4 69.23ZM68.03 78.79C68.59 79.35 68.91 80.11 68.91 80.91C68.91 81.71 68.59 82.47 68.03 83.03C67.47 83.59 66.71 83.91 65.91 83.91C65.11 83.91 64.35 83.59 63.79 83.03L53.18 72.42C52.62 71.86 52.3 71.1 52.3 70.3C52.3 69.51 52.62 68.74 53.18 68.18C53.74 67.62 54.51 67.3 55.3 67.3C56.1 67.3 56.86 67.62 57.42 68.18L68.03 78.79Z" />
</svg>
